src/images/hackathon/badge.svg

<svg fill="none" height="43" viewBox="0 0 24 43" width="24" xmlns="http://www.w3.org/2000/svg"><path clip-rule="evenodd" d="m20.7679 20.1938c-2.19 2.3422-5.3075 3.806-8.7669 3.806-3.30583 0-6.29942-1.3367-8.46975-3.4991v22.0817l8.37205-7.3872 8.8646 7.3872z" fill="#29b6f8" fill-rule="evenodd"/><g fill="#fff"><path d="m6.5401 33.2497h.7639l1.05525-3.7559h.03918l1.05525 3.7559h.76142l1.3932-5.0143h-.7982l-.97447 3.8855h-.04652l-1.01608-3.8855h-.78838l-1.01608 3.8831h-.04652l-.97691-3.8831h-.79573z"/><path d="m13.1285 28.2354h-.7565v5.0143h.7565z"/><path d="m18.3514 28.2354h-.7493v3.6823h-.0465l-2.5512-3.6823h-.7002v5.0143h.7565v-3.6775h.0465l2.5488 3.6775h.6954z"/></g><circle fill="#f74700" opacity=".81" r="12" transform="matrix(-.00000004 1 1 .00000004 12 12)"/><path d="m12.0001 4.94092 1.6641 5.12138h5.385l-4.3566 3.1652 1.6641 5.1214-4.3566-3.1652-4.35648 3.1652 1.66404-5.1214-4.35652-3.1652h5.38496z" fill="#fff"/></svg>

<svg width="24" height="43" viewBox="0 0 24 43" fill="none" xmlns="http://www.w3.org/2000/svg">
<path fill-rule="evenodd" clip-rule="evenodd" d="M20.7679 20.1938C18.5779 22.536 15.4604 23.9998 12.001 23.9998C8.69517 23.9998 5.70158 22.6631 3.53125 20.5007V42.5824L11.9033 35.1952L20.7679 42.5824V20.1938Z" fill="#29B6F8"/>
<path d="M6.5401 33.2497H7.304L8.35925 29.4938H8.39843L9.45368 33.2497H10.2151L11.6083 28.2354H10.8101L9.83563 32.1209H9.78911L8.77303 28.2354H7.98465L6.96857 32.1185H6.92205L5.94514 28.2354H5.14941L6.5401 33.2497Z" fill="white"/>
<path d="M13.1285 28.2354H12.372V33.2497H13.1285V28.2354Z" fill="white"/>
<path d="M18.3514 28.2354H17.6021V31.9177H17.5556L15.0044 28.2354H14.3042V33.2497H15.0607V29.5722H15.1072L17.656 33.2497H18.3514V28.2354Z" fill="white"/>
<circle opacity="0.81" r="12" transform="matrix(-4.37114e-08 1 1 4.37114e-08 12 12)" fill="#F74700"/>
<path d="M12.0001 4.94092L13.6642 10.0623L19.0492 10.0623L14.6926 13.2275L16.3567 18.3489L12.0001 15.1837L7.64362 18.3489L9.30766 13.2275L4.95114 10.0623L10.3361 10.0623L12.0001 4.94092Z" fill="white"/>
</svg>
